X:770
T:Reel 770
M:4/4
K:Amix
L:1/8
B,|C2EB, CDEC|B,A,E,A, G,F,G,B,|CB,A,B, CDEF|GEDF EAAB|c2BG AGEF|GFED CA,A,D|CB,A,B, CDEA|GEDB, CA,A,|B|cBAB cABG|EAAB cABG|cBAG AGEF|GEDB, CA,A,z|cBAc BAGB|cBAG EGAB|cBAB AGED|EABG EAA|
